!! Dmitri Kabalevsky, From Five Sets of Variations, Opus 51 (for piano)
!! "Five Happy Variations on a Russian Folksong"
!! Variation 5
!! Allegro
!! Tempo: quarter-note equals 144-160 beats per minute.
**kern	**kern	**kern
*M2/4	*M2/4	*M2/4
*F:	*F:	*F:
*M2/4	*M2/4	*M2/4
=1	=1	=1
{4f	4r	4r
4d}	4b-	4ff
=2	=2	=2
{4f	4r	4r
4d-}	4b-	4ff
=3	=3	=3
{4f	4r	4r
4c}	4a	4ff
=4	=4	=4
2Bn	2f 2g#	2ff
=5	=5	=5
4c	4f	{4a
4c	4r	4cc}
=6	=6	=6
{4c	8e	{8g
.	8r	8b-}
4C}	4r	8a
.	.	8g
=7	=7	=7
4F	2r	4f
4G	.	4f
=8	=8	=8
{4G#	2r	2f
4A}	.	.
=9	=9	=9
{4f	4r	4r
4d}	4b-	4ff
=10	=10	=10
{4f	4r	4r
4d-}	4b-	4ff
=11	=11	=11
{4f	4r	4r
4B-}	4dd-	4gg
=12	=12	=12
2c	2f 2cc	2aa
=13	=13	=13
4c	4f	{4a
4C	4r	4cc}
=14	=14	=14
2d-	8e	{8g
.	8r	8b-}
.	4r	8a
.	.	8g
=15	=15	=15
4c	4f	{4a
4C	4r	4cc}
=16	=16	=16
2d-	8e	{8g
.	8r	8b-}
.	4r	8a
.	.	8g
=17	=17	=17
4c	4f	{4a
4C	4r	4cc}
=18	=18	=18
{4d-	8e	{8g
.	8r	8b-}
4c	4r	8a
.	.	8g
=19	=19	=19
4F	4r	4f
4BBn	4g#	4ff
=20	=20	=20
2FF 2C	2a	2ff
==	==	==
*-	*-	*-
